;START_OF_HEADER
;HEADER_VERSION:0.1
;FLAVOR:Griffin
;GENERATOR.NAME:Cura_SteamEngine
;GENERATOR.VERSION:4.1.0
;GENERATOR.BUILD_DATE:2019-05-28
;TARGET_MACHINE.NAME:Ultimaker S5
;EXTRUDER_TRAIN.0.INITIAL_TEMPERATURE:205
;EXTRUDER_TRAIN.0.MATERIAL.VOLUME_USED:12101
;EXTRUDER_TRAIN.0.MATERIAL.GUID:506c9f0d-e3aa-4bd4-b2d2-23e2425b1aa9
;EXTRUDER_TRAIN.0.NOZZLE.DIAMETER:0.4
;EXTRUDER_TRAIN.0.NOZZLE.NAME:AA 0.4
;BUILD_PLATE.TYPE:glass
;BUILD_PLATE.INITIAL_TEMPERATURE:60
;BUILD_VOLUME.TEMPERATURE:35
;PRINT.TIME:5508
;PRINT.GROUPS:1
;PRINT.SIZE.MIN.X:103.763
;PRINT.SIZE.MIN.Y:96.763
;PRINT.SIZE.MIN.Z:0.2
;PRINT.SIZE.MAX.X:188.237
;PRINT.SIZE.MAX.Y:143.237
;PRINT.SIZE.MAX.Z:39
;END_OF_HEADER
;Generated with Cura_SteamEngine 4.1.0
T0
M82 ;absolute extrusion mode

G92 E0
M109 S205
G280 S1
G0 Z20.001
G1 F1500 E-6.5
;LAYER_COUNT:195
;LAYER:0
M107
M204 S625
M205 X10 Y10
G0 F2571.4 X187.261 Y137.978 Z0.2
M204 S500
M205 X5 Y5
;TYPE:SKIRT
G1 F1500 E0
G1 F1200 X186.846 Y138.596 E0.0098
G1 X186.207 Y139.331 E0.02263
G1 X184.331 Y141.207 E0.05756
G1 X183.777 Y141.705 E0.06737
G1 X183.173 Y142.14 E0.07717
G1 X182.526 Y142.507 E0.08696
G1 X181.844 Y142.804 E0.09676
G1 X181.133 Y143.025 E0.10656
G1 X180.403 Y143.169 E0.11636
G1 X179.431 Y143.237 E0.12919
G1 X179.257 Y143.237 E0.13148
G1 X178.514 Y143.197 E0.14128
G1 X177.779 Y143.078 E0.15108
G1 X177.294 Y142.944 E0.15771
G1 X177.037 Y143.024 E0.16125
G1 X176.306 Y143.168 E0.17106
G1 X175.333 Y143.237 E0.18391
G1 X175.159 Y143.237 E0.1862
G1 X174.416 Y143.197 E0.196
G1 X173.681 Y143.078 E0.2058
G1 X173.193 Y142.943 E0.21247
G1 X172.934 Y143.024 E0.21604
G1 X172.204 Y143.168 E0.22584
G1 X171.234 Y143.236 E0.23864
G1 X171.06 Y143.236 E0.24093
G1 X170.317 Y143.196 E0.25073
G1 X169.582 Y143.077 E0.26053
G1 X169.098 Y142.944 E0.26714
G1 X168.84 Y143.024 E0.2707
G1 X168.109 Y143.168 E0.28051
G1 X167.136 Y143.237 E0.29335
G1 X166.962 Y143.237 E0.29565
G1 X166.219 Y143.197 E0.30544
G1 X165.484 Y143.078 E0.31525
G1 X164.999 Y142.944 E0.32187
G1 X164.742 Y143.024 E0.32542
G1 X164.011 Y143.168 E0.33523
G1 X163.038 Y143.237 E0.34807
G1 X162.864 Y143.237 E0.35036
G1 X162.121 Y143.197 E0.36016
G1 X161.386 Y143.078 E0.36996
G1 X160.9 Y142.944 E0.3766
G1 X160.642 Y143.024 E0.38016
G1 X159.912 Y143.168 E0.38996
G1 X158.94 Y143.236 E0.40279
G1 X158.766 Y143.236 E0.40508
G1 X158.023 Y143.196 E0.41487
G1 X157.288 Y143.077 E0.42468
G1 X156.804 Y142.943 E0.43129
G1 X156.545 Y143.024 E0.43486
G1 X155.814 Y143.168 E0.44468
G1 X154.841 Y143.237 E0.45752
G1 X154.667 Y143.237 E0.45981
G1 X153.924 Y143.197 E0.46961
G1 X153.189 Y143.078 E0.47941
G1 X152.704 Y142.944 E0.48604
G1 X152.447 Y143.024 E0.48958
G1 X151.716 Y143.168 E0.49939
G1 X150.743 Y143.237 E0.51224
G1 X150.569 Y143.237 E0.51453
G1 X149.826 Y143.197 E0.52432
G1 X149.091 Y143.078 E0.53413
G1 X148.373 Y142.88 E0.54394
G1 X147.681 Y142.607 E0.55373
G1 X147.022 Y142.261 E0.56353
G1 X146.404 Y141.846 E0.57333
G1 X146.006 Y141.5 E0.58028
G1 X145.777 Y141.705 E0.58432
G1 X145.173 Y142.14 E0.59413
G1 X144.526 Y142.507 E0.60392
G1 X143.844 Y142.804 E0.61371
G1 X143.133 Y143.025 E0.62352
G1 X142.403 Y143.169 E0.63332
G1 X141.431 Y143.237 E0.64615
G1 X141.257 Y143.237 E0.64844
G1 X140.514 Y143.197 E0.65823
G1 X139.779 Y143.078 E0.66804
G1 X139.294 Y142.944 E0.67466
G1 X139.037 Y143.024 E0.67821
G1 X138.306 Y143.168 E0.68802
G1 X137.333 Y143.237 E0.70086
G1 X137.159 Y143.237 E0.70315
G1 X136.416 Y143.197 E0.71295
G1 X135.681 Y143.078 E0.72276
G1 X135.193 Y142.943 E0.72942
G1 X134.934 Y143.024 E0.733
G1 X134.204 Y143.168 E0.74279
G1 X133.234 Y143.236 E0.7556
G1 X133.06 Y143.236 E0.75789
G1 X132.317 Y143.196 E0.76769
G1 X131.582 Y143.077 E0.77749
G1 X131.098 Y142.944 E0.7841
G1 X130.84 Y143.024 E0.78766
G1 X130.109 Y143.168 E0.79747
G1 X129.136 Y143.237 E0.81031
G1 X128.962 Y143.237 E0.8126
G1 X128.219 Y143.197 E0.8224
G1 X127.484 Y143.078 E0.8322
G1 X126.999 Y142.944 E0.83883
G1 X126.742 Y143.024 E0.84237
G1 X126.011 Y143.168 E0.85218
G1 X125.038 Y143.237 E0.86503
G1 X124.864 Y143.237 E0.86732
G1 X124.121 Y143.197 E0.87712
G1 X123.386 Y143.078 E0.88692
G1 X122.9 Y142.944 E0.89356
G1 X122.642 Y143.024 E0.89711
G1 X121.912 Y143.168 E0.90691
G1 X120.94 Y143.236 E0.91974
G1 X120.766 Y143.236 E0.92203
G1 X120.023 Y143.196 E0.93183
G1 X119.288 Y143.077 E0.94163
G1 X118.804 Y142.943 E0.94825
G1 X118.545 Y143.024 E0.95182
G1 X117.814 Y143.168 E0.96163
G1 X116.841 Y143.237 E0.97447
G1 X116.667 Y143.237 E0.97677
G1 X115.924 Y143.197 E0.98656
G1 X115.189 Y143.078 E0.99637
G1 X114.704 Y142.944 E1.00299
G1 X114.447 Y143.024 E1.00654
G1 X113.716 Y143.168 E1.01635
G1 X112.743 Y143.237 E1.02919
G1 X112.569 Y143.237 E1.03148
G1 X111.826 Y143.197 E1.04128
G1 X111.091 Y143.078 E1.05108
G1 X110.373 Y142.88 E1.06089
G1 X109.681 Y142.607 E1.07069
G1 X109.022 Y142.261 E1.08049
G1 X108.404 Y141.846 E1.09029
G1 X107.669 Y141.207 E1.10311
G1 X105.793 Y139.331 E1.13805
G1 X105.295 Y138.777 E1.14786
G1 X104.86 Y138.173 E1.15766
G1 X104.493 Y137.526 E1.16745
G1 X104.196 Y136.844 E1.17725
G1 X103.975 Y136.133 E1.18705
G1 X103.831 Y135.403 E1.19685
G1 X103.763 Y134.431 E1.20968
G1 X103.763 Y134.257 E1.21197
G1 X103.803 Y133.514 E1.22177
G1 X103.922 Y132.779 E1.23157
G1 X104.056 Y132.294 E1.2382
G1 X103.976 Y132.037 E1.24174
G1 X103.832 Y131.306 E1.25155
G1 X103.763 Y130.333 E1.26439
G1 X103.763 Y130.159 E1.26669
G1 X103.803 Y129.416 E1.27648
G1 X103.922 Y128.681 E1.28629
G1 X104.057 Y128.193 E1.29295
G1 X103.976 Y127.934 E1.29653
G1 X103.832 Y127.204 E1.30632
G1 X103.764 Y126.234 E1.31913
G1 X103.764 Y126.06 E1.32142
G1 X103.804 Y125.317 E1.33122
G1 X103.923 Y124.582 E1.34102
G1 X104.056 Y124.098 E1.34763
G1 X103.976 Y123.84 E1.35119
G1 X103.832 Y123.109 E1.361
G1 X103.763 Y122.136 E1.37384
G1 X103.763 Y121.962 E1.37613
G1 X103.803 Y121.219 E1.38593
G1 X103.922 Y120.484 E1.39573
G1 X104.056 Y119.999 E1.40236
G1 X103.976 Y119.742 E1.4059
G1 X103.832 Y119.011 E1.41571
G1 X103.763 Y118.038 E1.42856
G1 X103.763 Y117.864 E1.43085
G1 X103.803 Y117.121 E1.44065
G1 X103.922 Y116.386 E1.45045
G1 X104.056 Y115.9 E1.45709
G1 X103.976 Y115.642 E1.46065
G1 X103.832 Y114.912 E1.47044
G1 X103.764 Y113.94 E1.48327
G1 X103.764 Y113.766 E1.48556
G1 X103.804 Y113.023 E1.49536
G1 X103.923 Y112.288 E1.50517
G1 X104.057 Y111.804 E1.51178
G1 X103.976 Y111.545 E1.51535
G1 X103.832 Y110.814 E1.52516
G1 X103.763 Y109.841 E1.53801
G1 X103.763 Y109.667 E1.5403
G1 X103.803 Y108.924 E1.5501
G1 X103.922 Y108.189 E1.5599
G1 X104.056 Y107.704 E1.56652
G1 X103.976 Y107.447 E1.57007
G1 X103.832 Y106.716 E1.57988
G1 X103.763 Y105.743 E1.59272
G1 X103.763 Y105.569 E1.59501
G1 X103.803 Y104.826 E1.60481
G1 X103.922 Y104.091 E1.61462
G1 X104.12 Y103.373 E1.62442
G1 X104.393 Y102.681 E1.63422
G1 X104.739 Y102.022 E1.64402
G1 X105.154 Y101.404 E1.65382
G1 X105.791 Y100.67 E1.66662
G1 X107.666 Y98.794 E1.70154
G1 X108.22 Y98.297 E1.71134
G1 X108.824 Y97.861 E1.72115
G1 X109.471 Y97.494 E1.73095
G1 X110.154 Y97.197 E1.74075
G1 X110.864 Y96.976 E1.75054
G1 X111.595 Y96.832 E1.76035
G1 X112.336 Y96.767 E1.77015
G1 X113.08 Y96.782 E1.77995
G1 X113.818 Y96.877 E1.78974
G1 X114.542 Y97.05 E1.79955
G1 X114.627 Y97.08 E1.80073
G1 X114.962 Y96.976 E1.80535
G1 X115.692 Y96.832 E1.81515
G1 X116.667 Y96.763 E1.82802
G1 X116.841 Y96.763 E1.83031
G1 X117.584 Y96.803 E1.84011
G1 X118.319 Y96.922 E1.84991
G1 X118.807 Y97.057 E1.85658
G1 X119.066 Y96.976 E1.86015
G1 X119.796 Y96.832 E1.86995
G1 X120.766 Y96.764 E1.88275
G1 X120.94 Y96.764 E1.88504
G1 X121.683 Y96.804 E1.89484
G1 X122.418 Y96.923 E1.90465
G1 X122.902 Y97.056 E1.91126
G1 X123.16 Y96.976 E1.91481
G1 X123.891 Y96.832 E1.92462
G1 X124.864 Y96.763 E1.93747
G1 X125.038 Y96.763 E1.93976
G1 X125.781 Y96.803 E1.94956
G1 X126.516 Y96.922 E1.95936
G1 X127.001 Y97.056 E1.96599
G1 X127.258 Y96.976 E1.96953
G1 X127.989 Y96.832 E1.97934
G1 X128.962 Y96.763 E1.99218
G1 X129.136 Y96.763 E1.99447
G1 X129.879 Y96.803 E2.00427
G1 X130.614 Y96.922 E2.01408
G1 X131.1 Y97.056 E2.02071
G1 X131.358 Y96.976 E2.02427
G1 X132.088 Y96.832 E2.03407
G1 X133.06 Y96.764 E2.0469
G1 X133.234 Y96.764 E2.04919
G1 X133.977 Y96.804 E2.05899
G1 X134.712 Y96.923 E2.06879
G1 X135.196 Y97.057 E2.0754
G1 X135.455 Y96.976 E2.07898
G1 X136.186 Y96.832 E2.08879
G1 X137.159 Y96.763 E2.10163
G1 X137.333 Y96.763 E2.10392
G1 X138.076 Y96.803 E2.11372
G1 X138.811 Y96.922 E2.12352
G1 X139.296 Y97.056 E2.13015
G1 X139.553 Y96.976 E2.13369
G1 X140.284 Y96.832 E2.1435
G1 X141.257 Y96.763 E2.15635
G1 X141.431 Y96.763 E2.15864
G1 X142.174 Y96.803 E2.16844
G1 X142.909 Y96.922 E2.17824
G1 X143.627 Y97.12 E2.18805
G1 X144.319 Y97.393 E2.19784
G1 X144.978 Y97.739 E2.20764
G1 X145.596 Y98.154 E2.21745
G1 X145.994 Y98.5 E2.22439
G1 X146.22 Y98.297 E2.22839
G1 X146.824 Y97.861 E2.2382
G1 X147.471 Y97.494 E2.24799
G1 X148.154 Y97.197 E2.2578
G1 X148.864 Y96.976 E2.26759
G1 X149.595 Y96.832 E2.2774
G1 X150.336 Y96.767 E2.2872
G1 X151.08 Y96.782 E2.29699
G1 X151.818 Y96.877 E2.30679
G1 X152.542 Y97.05 E2.31659
G1 X152.627 Y97.08 E2.31778
G1 X152.962 Y96.976 E2.3224
G1 X153.692 Y96.832 E2.3322
G1 X154.667 Y96.763 E2.34507
G1 X154.841 Y96.763 E2.34736
G1 X155.584 Y96.803 E2.35716
G1 X156.319 Y96.922 E2.36696
G1 X156.807 Y97.057 E2.37363
G1 X157.066 Y96.976 E2.3772
G1 X157.796 Y96.832 E2.387
G1 X158.766 Y96.764 E2.3998
G1 X158.94 Y96.764 E2.40209
G1 X159.683 Y96.804 E2.41189
G1 X160.418 Y96.923 E2.42169
G1 X160.902 Y97.056 E2.4283
G1 X161.16 Y96.976 E2.43186
G1 X161.891 Y96.832 E2.44167
G1 X162.864 Y96.763 E2.45451
G1 X163.038 Y96.763 E2.45681
G1 X163.781 Y96.803 E2.4666
G1 X164.516 Y96.922 E2.47641
G1 X165.001 Y97.056 E2.48303
G1 X165.258 Y96.976 E2.48658
G1 X165.989 Y96.832 E2.49639
G1 X166.962 Y96.763 E2.50923
G1 X167.136 Y96.763 E2.51152
G1 X167.879 Y96.803 E2.52132
G1 X168.614 Y96.922 E2.53112
G1 X169.1 Y97.056 E2.53776
G1 X169.358 Y96.976 E2.54132
G1 X170.088 Y96.832 E2.55112
G1 X171.06 Y96.764 E2.56395
G1 X171.234 Y96.764 E2.56624
G1 X171.977 Y96.804 E2.57604
G1 X172.712 Y96.923 E2.58584
G1 X173.196 Y97.057 E2.59245
G1 X173.455 Y96.976 E2.59603
G1 X174.186 Y96.832 E2.60584
G1 X175.159 Y96.763 E2.61868
G1 X175.333 Y96.763 E2.62097
G1 X176.076 Y96.803 E2.63077
G1 X176.811 Y96.922 E2.64057
G1 X177.296 Y97.056 E2.6472
G1 X177.553 Y96.976 E2.65074
G1 X178.284 Y96.832 E2.66055
G1 X179.257 Y96.763 E2.6734
G1 X179.431 Y96.763 E2.67569
G1 X180.174 Y96.803 E2.68549
G1 X180.909 Y96.922 E2.69529
G1 X181.627 Y97.12 E2.7051
G1 X182.319 Y97.393 E2.71489
G1 X182.978 Y97.739 E2.72469
G1 X183.596 Y98.154 E2.73449
G1 X184.331 Y98.793 E2.74732
G1 X186.207 Y100.669 E2.78225
G1 X186.705 Y101.223 E2.79206
G1 X187.14 Y101.827 E2.80186
G1 X187.507 Y102.474 E2.81166
G1 X187.804 Y103.156 E2.82145
G1 X188.025 Y103.867 E2.83125
G1 X188.169 Y104.597 E2.84105
G1 X188.237 Y105.569 E2.85388
G1 X188.237 Y105.743 E2.85617
G1 X188.197 Y106.486 E2.86597
G1 X188.078 Y107.221 E2.87578
G1 X187.944 Y107.706 E2.8824
G1 X188.024 Y107.963 E2.88594
G1 X188.168 Y108.694 E2.89576
G1 X188.237 Y109.667 E2.9086
G1 X188.237 Y109.841 E2.91089
G1 X188.197 Y110.584 E2.92069
G1 X188.078 Y111.319 E2.93049
G1 X187.943 Y111.807 E2.93716
G1 X188.024 Y112.066 E2.94073
G1 X188.168 Y112.796 E2.95053
G1 X188.236 Y113.766 E2.96333
G1 X188.236 Y113.94 E2.96562
G1 X188.196 Y114.683 E2.97542
G1 X188.077 Y115.418 E2.98523
G1 X187.944 Y115.902 E2.99184
G1 X188.024 Y116.16 E2.99539
G1 X188.168 Y116.891 E3.0052
G1 X188.237 Y117.864 E3.01805
G1 X188.237 Y118.038 E3.02034
G1 X188.197 Y118.781 E3.03013
G1 X188.078 Y119.516 E3.03994
G1 X187.944 Y120.001 E3.04656
G1 X188.024 Y120.258 E3.05011
G1 X188.168 Y120.989 E3.05992
G1 X188.237 Y121.962 E3.07276
G1 X188.237 Y122.136 E3.07505
G1 X188.197 Y122.879 E3.08485
G1 X188.078 Y123.614 E3.09466
G1 X187.944 Y124.1 E3.10129
G1 X188.024 Y124.358 E3.10485
G1 X188.168 Y125.088 E3.11465
G1 X188.236 Y126.06 E3.12748
G1 X188.236 Y126.234 E3.12977
G1 X188.196 Y126.977 E3.13957
G1 X188.077 Y127.712 E3.14937
G1 X187.943 Y128.196 E3.15598
G1 X188.024 Y128.455 E3.15956
G1 X188.168 Y129.186 E3.16937
G1 X188.237 Y130.159 E3.18221
G1 X188.237 Y130.333 E3.1845
G1 X188.197 Y131.076 E3.1943
G1 X188.078 Y131.811 E3.2041
G1 X187.944 Y132.296 E3.21073
G1 X188.024 Y132.553 E3.21427
G1 X188.168 Y133.284 E3.22408
G1 X188.237 Y134.257 E3.23693
G1 X188.237 Y134.431 E3.23922
G1 X188.197 Y135.174 E3.24902
G1 X188.078 Y135.909 E3.25882
G1 X187.88 Y136.627 E3.26863
G1 X187.607 Y137.319 E3.27842
G1 X187.261 Y137.978 E3.28822
M204 S625
M205 X10 Y10
G0 F2571.4 X186.842 Y137.858
M204 S500
M205 X5 Y5
G1 F1200 X186.429 Y138.449 E3.29772
G1 X185.91 Y139.034 E3.30801
G1 X184.034 Y140.91 E3.34295
G1 X183.497 Y141.391 E3.35244
G1 X182.909 Y141.81 E3.36195
G1 X182.279 Y142.161 E3.37144
G1 X181.614 Y142.44 E3.38094
G1 X180.922 Y142.644 E3.39044
G1 X180.212 Y142.77 E3.39993
G1 X179.431 Y142.817 E3.41024
G1 X179.257 Y142.817 E3.41253
G1 X178.537 Y142.777 E3.42202
G1 X177.825 Y142.658 E3.43153
G1 X177.293 Y142.506 E3.43881
G1 X176.825 Y142.644 E3.44524
G1 X176.115 Y142.77 E3.45473
G1 X175.333 Y142.817 E3.46505
G1 X175.159 Y142.817 E3.46734
G1 X174.439 Y142.777 E3.47684
G1 X173.727 Y142.658 E3.48634
G1 X173.192 Y142.505 E3.49367
G1 X172.723 Y142.643 E3.5001
G1 X172.013 Y142.769 E3.5096
G1 X171.234 Y142.816 E3.51988
G1 X171.06 Y142.816 E3.52217
G1 X170.34 Y142.776 E3.53166
G1 X169.628 Y142.657 E3.54117
G1 X169.097 Y142.506 E3.54844
G1 X168.628 Y142.644 E3.55487
G1 X167.918 Y142.77 E3.56437
G1 X167.136 Y142.817 E3.57468
G1 X166.962 Y142.817 E3.57698
G1 X166.242 Y142.777 E3.58647
G1 X165.53 Y142.658 E3.59598
G1 X164.998 Y142.506 E3.60326
G1 X164.53 Y142.644 E3.60969
G1 X163.82 Y142.77 E3.61918
G1 X163.038 Y142.817 E3.6295
G1 X162.864 Y142.817 E3.63179
G1 X162.144 Y142.777 E3.64128
G1 X161.432 Y142.658 E3.65079
G1 X160.897 Y142.505 E3.65811
G1 X160.431 Y142.643 E3.66451
G1 X159.721 Y142.769 E3.67401
G1 X158.94 Y142.816 E3.68431
G1 X158.766 Y142.816 E3.6866
G1 X158.046 Y142.776 E3.6961
G1 X157.334 Y142.657 E3.7056
G1 X156.803 Y142.505 E3.71288
G1 X156.333 Y142.644 E3.71933
G1 X155.623 Y142.77 E3.72882
G1 X154.841 Y142.817 E3.73914
G1 X154.667 Y142.817 E3.74143
G1 X153.947 Y142.777 E3.75093
G1 X153.235 Y142.658 E3.76043
G1 X152.703 Y142.506 E3.76772
G1 X152.235 Y142.644 E3.77414
G1 X151.525 Y142.77 E3.78364
G1 X150.743 Y142.817 E3.79395
G1 X150.569 Y142.817 E3.79624
G1 X149.849 Y142.777 E3.80574
G1 X149.137 Y142.658 E3.81524
G1 X148.443 Y142.46 E3.82475
G1 X147.776 Y142.187 E3.83424
G1 X147.142 Y141.842 E3.84374
G1 X146.551 Y141.429 E3.85323
G1 X146 Y140.94 E3.86293
G1 X145.497 Y141.391 E3.87183
G1 X144.909 Y141.81 E3.88134
G1 X144.279 Y142.161 E3.89083
G1 X143.614 Y142.44 E3.90033
G1 X142.922 Y142.644 E3.90983
G1 X142.212 Y142.77 E3.91932
G1 X141.431 Y142.817 E3.92962
G1 X141.257 Y142.817 E3.93192
G1 X140.537 Y142.777 E3.94141
G1 X139.825 Y142.658 E3.95092
G1 X139.293 Y142.506 E3.9582
G1 X138.825 Y142.644 E3.96463
G1 X138.115 Y142.77 E3.97412
G1 X137.333 Y142.817 E3.98444
G1 X137.159 Y142.817 E3.98673
G1 X136.439 Y142.777 E3.99622
G1 X135.727 Y142.658 E4.00573
G1 X135.192 Y142.505 E4.01306
G1 X134.723 Y142.643 E4.01949
G1 X134.013 Y142.769 E4.02899
G1 X133.234 Y142.816 E4.03926
G1 X133.06 Y142.816 E4.04155
G1 X132.34 Y142.776 E4.05105
G1 X131.628 Y142.657 E4.06055
G1 X131.097 Y142.506 E4.06782
G1 X130.628 Y142.644 E4.07426
G1 X129.918 Y142.77 E4.08376
G1 X129.136 Y142.817 E4.09407
G1 X128.962 Y142.817 E4.09636
G1 X128.242 Y142.777 E4.10586
G1 X127.53 Y142.658 E4.11536
G1 X126.998 Y142.506 E4.12265
G1 X126.53 Y142.644 E4.12907
G1 X125.82 Y142.77 E4.13857
G1 X125.038 Y142.817 E4.14888
G1 X124.864 Y142.817 E4.15117
G1 X124.144 Y142.777 E4.16067
G1 X123.432 Y142.658 E4.17018
G1 X122.897 Y142.505 E4.1775
G1 X122.431 Y142.643 E4.1839
G1 X121.721 Y142.769 E4.1934
G1 X120.94 Y142.816 E4.2037
G1 X120.766 Y142.816 E4.20599
G1 X120.046 Y142.776 E4.21548
G1 X119.334 Y142.657 E4.22499
G1 X118.803 Y142.505 E4.23226
G1 X118.333 Y142.644 E4.23872
G1 X117.623 Y142.77 E4.24821
G1 X116.841 Y142.817 E4.25853
G1 X116.667 Y142.817 E4.26082
G1 X115.947 Y142.777 E4.27031
G1 X115.235 Y142.658 E4.27982
G1 X114.703 Y142.506 E4.2871
